azure-docs/api_entity_linkingintelligence.svg

<?xml version="1.0" encoding="UTF-8"?>
<svg width="512px" height="512px" viewBox="0 0 512 512" version="1.1" xmlns="http://www.w3.org/2000/svg" xmlns:xlink="http://www.w3.org/1999/xlink">
    <!-- Generator: Sketch 46.2 (44496) - http://www.bohemiancoding.com/sketch -->
    <title>entityLinkingIntelligence-wht-bluBG-512p</title>
    <desc>Created with Sketch.</desc>
    <defs></defs>
    <g id="PRODUCTION-ICONS" stroke="none" stroke-width="1" fill="none" fill-rule="evenodd">
        <g id="entityLinkingIntelligence-wht-bluBG-512p">
            <g id="Entity-Linking-Intelligence-Service-API">
                <rect id="Rectangle-3-Copy-24" fill="#0063B1" x="0" y="0" width="512" height="512"></rect>
                <path d="M375.466667,349.805796 C375.466667,363.976818 363.975111,375.468373 349.804089,375.468373 L258.907022,375.468373 C244.736,375.468373 233.244444,363.976818 233.244444,349.805796 L233.244444,301.512818 L253.092978,301.512818 C279.830756,301.512818 301.511111,279.832462 301.511111,253.094684 L301.511111,233.246151 L349.804089,233.246151 C363.975111,233.246151 375.466667,244.732018 375.466667,258.90304 L375.466667,349.805796 Z M278.755556,233.246151 L278.755556,253.094684 C278.755556,267.265707 267.264,278.757262 253.092978,278.757262 L233.244444,278.757262 L233.244444,258.90304 C233.244444,244.732018 244.736,233.246151 258.907022,233.246151 L278.755556,233.246151 Z M162.195911,278.757262 C148.024889,278.757262 136.533333,267.265707 136.533333,253.094684 L136.533333,162.191929 C136.533333,148.020907 148.024889,136.53504 162.195911,136.53504 L253.092978,136.53504 C267.264,136.53504 278.755556,148.020907 278.755556,162.191929 L278.755556,210.490596 L258.907022,210.490596 C232.169244,210.490596 210.488889,232.165262 210.488889,258.90304 L210.488889,278.757262 L162.195911,278.757262 Z M349.804089,210.490596 L301.511111,210.490596 L301.511111,162.191929 C301.511111,135.454151 279.830756,113.779484 253.092978,113.779484 L162.195911,113.779484 C135.458133,113.779484 113.777778,135.454151 113.777778,162.191929 L113.777778,253.094684 C113.777778,279.832462 135.458133,301.512818 162.195911,301.512818 L210.488889,301.512818 L210.488889,349.805796 C210.488889,376.543573 232.169244,398.223929 258.907022,398.223929 L349.804089,398.223929 C376.541867,398.223929 398.222222,376.543573 398.222222,349.805796 L398.222222,258.90304 C398.222222,232.165262 376.541867,210.490596 349.804089,210.490596 L349.804089,210.490596 Z" id="Fill-1" fill="#FFFFFF"></path>
            </g>
        </g>
    </g>
</svg>

<svg width="512" height="512" xmlns="http://www.w3.org/2000/svg"><g fill="none" fill-rule="evenodd"><path fill="#0063B1" d="M0 0h512v512H0z"/><path d="M375.467 349.806c0 14.17-11.492 25.662-25.663 25.662h-90.897c-14.171 0-25.663-11.491-25.663-25.662v-48.293h19.849c26.738 0 48.418-21.68 48.418-48.418v-19.849h48.293c14.171 0 25.663 11.486 25.663 25.657v90.903zm-96.711-116.56v19.849c0 14.17-11.492 25.662-25.663 25.662h-19.849v-19.854c0-14.171 11.492-25.657 25.663-25.657h19.849zm-116.56 45.511c-14.171 0-25.663-11.491-25.663-25.662v-90.903c0-14.171 11.492-25.657 25.663-25.657h90.897c14.171 0 25.663 11.486 25.663 25.657v48.299h-19.849c-26.738 0-48.418 21.674-48.418 48.412v19.854h-48.293zm187.608-68.266h-48.293v-48.3c0-26.737-21.68-48.412-48.418-48.412h-90.897c-26.738 0-48.418 21.675-48.418 48.413v90.903c0 26.737 21.68 48.418 48.418 48.418h48.293v48.293c0 26.738 21.68 48.418 48.418 48.418h90.897c26.738 0 48.418-21.68 48.418-48.418v-90.903c0-26.738-21.68-48.412-48.418-48.412z" fill="#FFF"/></g></svg>
